X: 151
T: Teetotaler's
R: reel
M: 4/4
L: 1/8
K:Gmaj
(3DEF|"G"G2 GF GABc|dBge "D"dBAc|"Em"BEED EFGA |"G"BGAF "Em"GFEF|
"G"DG GF GABc|d2ge "D"dBAc|"Em"BEED EFGA |"G"BGAF G3:|
|: A|"Em" Beed e2ef|geaf "G"gfed| "D"Bdd^c d2de|"D" fdaf "G"gfed|
"Em"Beed e2ef|geaf "G"gfed|"Em"BEED EFGA|"G"BGAF G3:|


